mojito-mark.svg

<svg width="128" height="119" viewBox="0 0 128 119" fill="none" xmlns="http://www.w3.org/2000/svg">
<path d="M26.2998 101.766C11.3418 89.2081 1.9822 71.219 0.28037 51.7565C-1.27835 33.9304 3.70339 16.2054 14.1963 1.85127C15.7967 -0.338072 18.9078 -0.600318 20.9845 1.14327C23.0611 2.88677 23.3146 5.97443 21.7368 8.17997C12.9053 20.5249 8.72794 35.6698 10.0596 50.9002C11.5345 67.7676 19.6456 83.3587 32.6092 94.2423C45.5728 105.126 62.327 110.41 79.1853 108.935C94.4077 107.602 108.589 100.856 119.207 90.0102C121.103 88.0727 124.186 87.7864 126.263 89.5296C128.339 91.2729 128.621 94.3836 126.745 96.3405C114.438 109.172 97.8569 117.16 80.0401 118.72C60.5884 120.422 41.2577 114.324 26.2998 101.766Z" fill="black" fill-opacity="0.85"/>
<path d="M77.8075 58.465C78.4637 54.7421 82.9017 53.1259 85.7961 55.5558L110.843 76.5836C112.92 78.327 113.205 81.4431 111.28 83.3524C107.468 87.1325 103.102 90.324 98.3248 92.8122C92.0936 96.0576 85.2846 98.0434 78.2864 98.656C77.6028 98.7158 76.9188 98.7624 76.2347 98.7958C73.2946 98.9395 71.1521 96.2261 71.6633 93.3257L77.8075 58.465Z" fill="black" fill-opacity="0.425"/>
<path d="M26.7649 55.8679C24.008 56.8719 20.9728 55.2464 20.5884 52.3364C20.486 51.5607 20.4005 50.7821 20.3322 50.0012C19.7199 42.9991 20.4927 35.9446 22.6052 29.2411C24.2247 24.1018 26.6075 19.2457 29.6661 14.833C31.2109 12.6043 34.3276 12.3448 36.4042 14.0882L61.6844 35.3123C64.5788 37.7423 63.7587 42.396 60.2082 43.689L26.7649 55.8679Z" fill="black" fill-opacity="0.425"/>
<path d="M61.1867 53.7857C64.7372 52.4927 68.3552 55.5302 67.6992 59.2531L61.6086 93.8153C61.2718 95.7264 59.3875 96.9663 57.5377 96.3827C50.8378 94.2691 44.6192 90.8554 39.2377 86.3373C33.8563 81.8193 29.4166 76.2849 26.1729 70.0504C25.3446 68.4584 26.1659 66.5391 27.8515 65.9252L61.1867 53.7857Z" fill="black" fill-opacity="0.425"/>
</svg>

<svg xmlns="http://www.w3.org/2000/svg" width="128" height="119" fill="none" viewBox="0 0 128 119"><path fill="#000" fill-opacity=".85" d="M26.3 101.766A73.694 73.694 0 0 1 14.197 1.851c1.6-2.19 4.71-2.451 6.788-.708 2.076 1.744 2.33 4.831.752 7.037a63.867 63.867 0 0 0 10.872 86.062 63.79 63.79 0 0 0 86.598-4.232c1.896-1.937 4.979-2.224 7.056-.48 2.076 1.743 2.358 4.854.482 6.81a73.62 73.62 0 0 1-46.705 22.38 73.6 73.6 0 0 1-53.74-16.954"/><path fill="#000" fill-opacity=".425" d="M77.808 58.465c.656-3.723 5.094-5.34 7.988-2.91l25.047 21.029c2.077 1.743 2.362 4.86.437 6.768a53.5 53.5 0 0 1-35.045 15.444c-2.94.143-5.083-2.57-4.572-5.47zm-51.043-2.597c-2.757 1.004-5.792-.622-6.177-3.532a53.55 53.55 0 0 1 9.078-37.503c1.545-2.229 4.662-2.488 6.738-.745l25.28 21.224c2.895 2.43 2.075 7.084-1.476 8.377zm34.422-2.082c3.55-1.293 7.168 1.744 6.512 5.467l-6.09 34.562c-.337 1.911-2.221 3.151-4.071 2.568A53.52 53.52 0 0 1 26.173 70.05c-.828-1.593-.007-3.512 1.678-4.126z"/></svg>
